src/assets/img/history.svg

<svg
  width="20"
  height="18"
  viewBox="0 0 20 18"
  fill="none"
  xmlns="http://www.w3.org/2000/svg">
  <path
  opacity="0.4"
  fill-rule="evenodd"
  clip-rule="evenodd"
  d="M6.36364 0C4.85741 0 3.63636 1.20746 3.63636 2.69744V12.6H0.909091C0.407014 12.6 0 13.0042 0 13.4991V15.3C0 16.7912 1.22411 18 2.72727 18H13.6364C15.1423 18 16.3636 16.7944 16.3636 15.3045V5.4H19.0909C19.5965 5.4 20 4.99813 20 4.5024V2.70439C20 1.21111 18.7799 0 17.2727 0H6.36364ZM5.3 16.2C5.40009 15.9193 5.45455 15.6172 5.45455 15.3026V2.69744C5.45455 2.20206 5.86107 1.8 6.36364 1.8C6.86402 1.8 7.27273 2.2043 7.27273 2.7V4.50094C7.27273 4.99748 7.67624 5.4 8.18182 5.4H14.5455V15.3045C14.5455 15.7991 14.1394 16.2 13.6364 16.2H5.3ZM1.81818 14.4V15.3C1.81818 15.7957 2.22689 16.2 2.72727 16.2C3.22984 16.2 3.63636 15.7979 3.63636 15.3026V14.4H1.81818ZM9.09091 3.6V2.7C9.09091 2.38443 9.03609 2.0815 8.9354 1.8H17.2727C17.7747 1.8 18.1818 2.20414 18.1818 2.70439V3.6H9.09091Z"
  fill="white"/>
</svg>

<svg
  width="20"
  height="18"
  fill="none"
  xmlns="http://www.w3.org/2000/svg">
  <path
  opacity=".4"
  fill-rule="evenodd"
  clip-rule="evenodd"
  d="M6.364 0C4.857 0 3.636 1.207 3.636 2.697V12.6H.91a.905.905 0 0 0-.909.9v1.8C0 16.791 1.224 18 2.727 18h10.91c1.505 0 2.727-1.206 2.727-2.695V5.4h2.727c.505 0 .909-.402.909-.898V2.704C20 1.211 18.78 0 17.273 0H6.363ZM5.3 16.2c.1-.28.155-.583.155-.897V2.697c0-.495.406-.897.909-.897.5 0 .909.404.909.9v1.8c0 .497.403.9.909.9h6.364v9.905a.902.902 0 0 1-.91.895H5.3Zm-3.482-1.8v.9c0 .496.409.9.91.9.502 0 .908-.402.908-.897V14.4H1.818ZM9.091 3.6v-.9c0-.316-.055-.619-.156-.9h8.338c.502 0 .909.404.909.904V3.6H9.09Z"
  fill="#fff"/>
</svg>
